X:1
T:Missa Conditor
T:Missa Conditor
T:Animuccia G.
C:Animuccia G.
%%score [ 1 2 3 4 ]
L:1/8
Q:1/4=180
M:4/2
K:Eb
V:1 treble nm="Soprano"
V:2 treble nm="Alto"
V:3 treble-8 nm="Tenor"
V:4 bass nm="Bass"
V:1
 z16 | z16 | G16- | G8 F8 | E8 G6 A2 | B4 c6 B2 G4 | A4 B4 E4 e4- | e2 d2 c2 B2 A2 B2 c4- | %8
w: ||Ky-|* ri-|e e- *|* lei- * *|* * son, e-||
 c2 B2 B8 =A4 | B12 G4 | _A6 B2 c4 B4- | B4 A2 G2 A4 F4- | F4 G6 F2 E2 F2 | G2 A2 B2 G2 A4 G2 F2 | %14
w: * * * lei-|son, e-|lei- * * *||||
 B8 B8 | z16 | z4 F4 G6 A2 | B4 A2 G2 A4 F4 | B8 G8 | z16 | B12 A4 | G8 B6 c2 | d2 B2 e4 d4 e4- | %23
w: * son,||e- lei- *||* son,||Ky- ri-|e e- *||
 e2 d2 B4 c4 d4 | B8 e6 d2 | c2 d2 e8 d4 | c8 B6 c2 | d8 z8 | z16 | z16 | z16 | z16 | %32
w: * * * * lei-|son, e- *||lei- son, _|_|||||
 B6 c2 d4 e4- | e2 d2 B4 c4 d4- | d2 c2 B8 =A4 | B16 || z16 | B16 | c8 A8 | B8 G6 FG | %40
w: e- * * lei-|||son.||Chri-|ste e-|lei- * * *|
 A4 G4 F4 E4 | F4 G4 E8 | z8 z4 A4 | G4 A6 B2 c2 d2 | e6 d2 c4 B2 A2 | G8 F4 B4- | B2 A2 G8 F4 | %47
w: |* * son,|Chri-|ste _ _ _ _|_ _ _ _ _|* e- lei-||
 G8 F4 B4- | B4 B4 B4 c4- | c4 d4 e8 | c16 | z4 c8 B4 | c2 d2 e2 c2 d4 e4- | e2 d2 B4 c6 d2 | %54
w: * son, Chri-|* ste e- lei-||son,|Chri- ste|e- * * * * *||
 e4 d4 c8 | =B16 || E8 G8- | G4 A4 B6 c2 | d4 e8 d2 c2 | d4 B8 c4- | c4 B4 A8 | G8 z8 | z16 | z16 | %64
w: * * lei-|son.|Ky- *|* ri- e _|_ _ _ _|* e- lei-||son,|||
 z8 z4 B4 | c4 d4 e8- | e4 d2 c2 d4 e4- | e2 d2 c8 =B4 | c8 z8 | z8 B8 | c8 d8 | e12 d2 c2 | %72
w: Ky-|* ri- e|_ _ _ _ e-|* * * lei-|son,|Ky-|* ri-|e _ _|
 d8 e4 B4 | c4 G4 B8 | z4 B4 c6 d2 | e4 d4 c8 | _B16 | z16 | z8 z4 F4- | F4 G6 A2 B4- | B4 G4 A8 | %81
w: _ _ e-|lei- * son,|e- lei- *||son,||e-|* lei- * *||
 G16- | G8 B8 | c8 d8 | e8 B8 | c16 | =B16 |] %87
w: son,|_ Ky-|* ri-|e e-|lei-|son.|
V:2
 z16 | z16 | z16 | z16 | z16 | z16 | z8 G8 | G8 F8 | E16 | D12 E4 | F8 G6 F2 | D4 E4 F8 | %12
w: ||||||Ky-|* ri-|e|e- *|* lei- *||
 B,4 B6 A2 G2 F2 | E4 D2 E2 F4 F4 | G16- | G8 E6 D2 | C4 D4 E6 F2 | G4 E4 F8 | B,6 C2 D4 E4- | %19
w: son, Ky- * * *|* * * * ri-|e|_ e- *|* * lei- *|||
 E2 F2 G8 F2 E2 | D4 E6 D2 D2 CD | E8 G8- | G16- | G8 F8 | E8 C6 D2 | E6 F2 G4 F4 | E4 C4 F4 G4 | %27
w: |* son, _ _ _ _|_ Ky-||* ri-|e e- *||lei- * * *|
 F8 z8 | G16 | F8 E8 | D6 E2 F4 G4- | G2 F2 D4 E4 F4 | B,4 B6 A2 G2 F2 | E2 F2 G6 F2 F4- | %34
w: son,|Ky-|ri- e|e- * * lei-||||
 F2 E2 E2 D2 F8 | F16 || E8 D4 E4- | E2 F2 G2 A2 B4 G4 | A4 F6 G2 A4- | A2 G2 G6 F2 E2 D2 | %40
w: |son.|Chri- ste _|_ _ _ _ _ _|||
 C2 D2 E2 C2 D4 G4 | F4 E2 F2 G6 FE | D4 E6 C2 F4 | E4 F6 E2 A4 | G4 E8 D4 | E4 E4 D4 G4 | %46
w: * * * * * e-|lei- * * * * *|||son, Chri- *|* ste _ e-|
 F4 E4 D6 C2 | D2 B,2 E4 D8 | z4 E4 D4 E2 F2 | G2 A2 B6 A2 G4- | G4 F2 E2 F8 | B,4 E8 D4 | %52
w: lei- * * *|* * * son,|Chri- ste _ _|_ _ _ _ _||* e- lei-|
 E4 C4 B,4 C2 D2 | E2 F2 G6 F2 E2 D2 | C4 D4 E8 | D16 || z16 | z16 | z4 E4 G4 A4 | B8 G4 A4- | %60
w: son, Chri- ste _ _|_ _ _ _ _ _|* e- lei-|son.|||Ky- * ri-|e e- lei-|
 A2 G2 G8 F4 | G8 z8 | z16 | z8 z4 F4 | E4 D4 G8 | F4 B4 A4 G4 | A6 G2 F4 E2 D2 | C2 D2 E4 D8 | %68
w: |son,||Ky-|* ri- e|_ e- lei- *|||
 C8 B,8 | z16 | z16 | z4 E4 G4 A4 | B12 A2 G2 | A4 B6 A2 G4- | G2 F2 E2 D2 C2 D2 E2 F2 | G12 G4 | %76
w: * son,|||Ky- * ri-|e _ _|_ e- * *||* lei-|
 G8 z8 | z4 B,4 C6 D2 | E4 D4 C8 | D4 B,4 E4 F4 | G8 z8 | z8 E8- | E8 G8- | G4 =A4 B8- | B8 G8 | %85
w: son,|e- lei- *||son, e- lei- *|son,|Ky-||* ri- e|_ e-|
 _A4 G8 F4 | G16 |] %87
w: lei- * *|son.|
V:3
 G16 | F8 E8 | G6 A2 B4 c4- | c2 B2 G4 A4 B4 | E4 e6 d2 c4 | B4 A2 B2 c2 d2 e4 | f4 g6 f2 e2 d2 | %7
w: Ky-|ri- e|e- * * lei-||son, e- * *|lei- * * * * *||
 c2 B2 c4 F2 G2 A2 B2 | c2 d2 e4 c8 | B8 z4 B4 | c4 d4 e6 d2 | B4 c4 F4 B4- | B2 A2 G2 F2 E8 | %13
w: ||son, e-|lei- * * *|||
 B4 B4 c4 d4 | e12 d2 c2 | d4 e4 g8 | f8 z8 | z4 e8 d2 c2 | d4 e4 B8 | z8 G8- | G8 F8 | G8 z8 | %22
w: son, e- lei- *|||son,|e- * *|* lei- son,|Ky-|* ri-|e|
 G6 A2 B4 c4- | c2 B2 G4 A4 B4 | E4 e6 d2 c2 B2 | A2 B2 c6 B2 B4- | B4 =A4 B8 | B6 c2 d4 e4- | %28
w: e- * * lei-||son, e- * * *||* lei- son,|e- * * lei-|
 e4 d2 c2 B2 A2 B4 | c4 d6 c2 c4- | c4 B4 c8 | z8 z4 c2 d2 | e2 f2 g4 f4 e2 d2 | c2 d2 e8 d2 c2 | %34
w: ||* * son,|e- *|* * * lei- * *||
 B8 c8 | B16 || z16 | z16 | z16 | z16 | z8 B8- | B16- | B8 c8- | c16- | c8 A8 | B16- | B16- | B16 | %48
w: |son.|||||Chri-||* ste|_|* e-|lei-|||
 G16- | G16 | A16 | G16- | G16- | G16- | G16- | G16 || z16 | z16 | z16 | z16 | z4 B4 c4 d4 | %61
w: |||son.|_||||||||Ky- * ri-|
 e12 d2 c2 | d4 B8 c4- | c4 B4 A8 | G8 z8 | z16 | z16 | z16 | z4 f4 e4 d4 | e6 dc d4 e4- | %70
w: e _ _|_ e- lei-||son,||||Ky- * ri-|e _ _ _ e-|
 e2 d2 c8 =B4 | c6 d2 e8 | f8 g8 | z4 E4 G6 A2 | B4 G4 A8 | G4 G4 e6 dc | d2 B2 e6 d2 g4 | %77
w: |lei- * *|* son,|e- lei- *||son, e- lei- * *||
 f4 e6 d2 c4- | c2 B2 B8 =A4 | B16 | z4 B4 c6 d2 | e4 B4 c8 | B8 e8- | e8 f8 | g4 e8 d4 | %85
w: ||son,|e- lei- *||son, Ky-|* ri-|e e- *|
 e6 d2 c8 | d16 |] %87
w: lei- * *|son.|
V:4
 z16 | z16 | z16 | z16 | z16 | z16 | z16 | z16 | z16 | G,16 | F,8 E,8 | z16 | z8 G,8- | G,8 F,8 | %14
w: |||||||||Ky-|ri- e,||Ky-|* ri-|
 E,8 G,6 A,2 | B,4 C6 B,2 G,4 | A,4 B,4 E,4 E4- | E2 D2 C2 B,2 A,4 B,4- | B,2 A,2 G,6 F,2 E,2 D,2 | %19
w: e e- *|* lei- * *|* * son, e-|* * * * * lei-||
 C,4 B,,4 C,8 | B,,16 | E,16 | z16 | z16 | z16 | z4 C,8 D,4 | E,4 F,4 D,4 E,4 | %27
w: ||son,||||e- *|* lei- * *|
 B,,4 B,6 A,2 G,2 F,2 | E,2 F,2 G,6 F,2 E,4- | E,4 D,4 E,4 D,2 C,2 | G,8 F,4 E,2 F,2 | %31
w: son, e- * * *||||
 G,2 A,2 B,4 C4 A,4 | G,6 A,2 B,4 C4- | C2 B,2 G,4 A,4 B,4 | G,8 F,8 | B,,16 || z16 | z16 | z16 | %39
w: |||lei- *|son.||||
 z16 | z8 z4 E,4 | D,4 E,6 F,2 G,2 A,2 | B,4 G,4 A,4 F,4 | z4 F,4 A,6 B,2 | C4 C,4 F,8 | %45
w: |Chri-|ste _ _ _ _|_ e- lei- son,|Chri- ste _|_ e- lei-|
 E,8 z4 E,4 | D,4 E,2 F,2 G,2 A,2 B,4 | G,4 F,2 E,2 B,4 B,,4 | E,8 z4 C,4- | C,4 B,,4 E,8 | F,16 | %51
w: son, Chri-|ste _ _ _ _ _|e- * * * lei-|son, Chri-|* ste e-|lei-|
 E,4 C,2 D,2 E,2 F,2 G,4 | C,8 G,4 C,4- | C,2 D,2 E,6 D,2 C,4- | C,4 B,,4 C,8 | G,16 || z16 | z16 | %58
w: |* son, e-||* * lei-|son.|||
 z16 | z16 | z16 | z4 E,4 G,4 A,4 | B,8 G,4 A,4- | A,2 G,2 G,8 F,4 | G,8 E,8 | z16 | z16 | %67
w: |||Ky- * ri-|e e- lei-||* son,|||
 z4 E,4 F,4 G,4 | A,4 G,2 F,2 G,2 A,2 B,4 | A,4 G,6 F,2 E,2 D,2 | C,2 D,2 E,4 D,8 | C,16 | %72
w: Ky- * ri-|e _ _ _ _ _|_ e- * * *||lei-|
 B,,8 E,8 | z16 | z8 z4 C4- | C4 =B,4 C8 | G,4 E,4 G,6 A,2 | B,4 G,4 A,8 | G,6 F,2 E,4 F,4 | %79
w: * son,||e-|* * lei-|son, e- lei- *|||
 B,,4 E,8 D,4 | E,6 F,2 F,8 | E,8 z8 | E,12 D,4 | C,8 B,,8 | E,8 z4 G,4 | C6 B,2 A,8 | G,16 |] %87
w: son, e- *|lei- * *|son,|Ky- ri-|e _|_ e-|lei- * *|son.|

